X:1     %Music
T:Mummers' Carol [Tipteerers' Carol]
Z:Lucy Broadwood Broadwood
S:Two of the actors in Mummers Play
F:http://www.folkinfo.org/songs
B:Jones Lewis, 1995,Sweet Sussex, Ferret Publ, Sutton Coldfield
M:4/4     %Meter
L:1/8     %
K:D
(DA) |A2 G2 F2 EF |G2 F2 E2 (DE) |F3 E F2 (3:2GAB | (A2A4)
w:A *glo-rious an-gel from Heav-en came Un* to the Vir-gin__ Maid*
|:A2 |B2 A2 (GA) B2 |A2 (GF) (EF)
w:Strange news and ti-*dings of great_ joy_ 
G2 |A3 B A2 G2 |(F2A2F2) D2 |(A2E2F2) (BG) |(F4E3) D | (D2D4) :|
w:the hum-ble Ma-ry had.__ the hum__ ble_ Ma-*ry had.*